X:4114
T:The Cloud Received Christ From Their Sight
M:3/2
L:1/4
K:G
D2|"^I""^ii"G G "^V7""^ii"A2 A2|"^I""^ii"B "^V7""^ii"A "^vi""^ii"G2 "^V7""^ii"A2|"^I""^ii"B B "^V7""^ii"c2 "^I""^ii"B2|"^V7""^ii"A4 d2|"^I""^ii"d B B2 G2|"^IV""^ii"G E E2 G E|"^viio""^IV"D G G2 "^I""^IV"A2|"^V""^IV"G4|]

